icon/si/broadcom.svg

<svg viewBox="0 0 24 24" xmlns="http://www.w3.org/2000/svg"><path d="M12 0C5.37 0 0 5.37 0 12a12 12 0 0 0 .574 3.62c.274-.12.566-.26.856-.38 1.37-.54 2.63-.36 3.88.4 0 0 .46.28.6.36.59.38 1.14.73 1.67.73.51 0 1.01-.14 1.22-1.12.33-1.53 1.14-5.3 1.49-7.16.21-1.1.32-1.69.44-2.09.2-.71.58-1.09 1.11-1.15 0 0 .09-.01.16-.01s.15.01.15.01c.54.06.92.44 1.13 1.15.11.4.22.99.43 2.09.35 1.86 1.16 5.63 1.49 7.16.21.98.71 1.12 1.22 1.12.53 0 1.08-.35 1.67-.73.14-.08.6-.36.6-.36 1.26-.76 2.51-.94 3.88-.4.3.12.59.26.87.39A12 12 0 0 0 24 12c0-6.63-5.37-12-12-12m0 9.79c-.4 2.01-1 4.92-1.3 6.21-.36 1.7-1.5 2.66-3.12 2.66-1.08 0-1.94-.54-2.7-1.01-.38-.25-.8-.52-1.25-.65a2.32 2.32 0 0 0-1.42-.03 6.11 6.11 0 0 0-.94.39A12 12 0 0 0 12 24a12 12 0 0 0 10.73-6.65 6.08 6.08 0 0 0-.94-.39 2.32 2.32 0 0 0-1.41.01c-.46.16-.88.43-1.26.68-.76.47-1.62 1.01-2.7 1.01-1.62 0-2.75-.96-3.12-2.66C13 14.71 12 9.79 12 9.79Z"/></svg>

<svg role="img" viewBox="0 0 24 24" xmlns="http://www.w3.org/2000/svg" height="1em" width="1em">
  <path d="M12 0C5.37 0 0 5.37 0 12A12 12 0 0 0 .574 15.62C.848 15.5 1.14 15.36 1.43 15.24C2.8 14.7 4.06 14.88 5.31 15.64C5.31 15.64 5.77 15.92 5.91 16C6.5 16.38 7.05 16.73 7.58 16.73C8.09 16.73 8.59 16.59 8.8 15.61C9.13 14.08 9.94 10.31 10.29 8.45C10.5 7.35 10.61 6.76 10.73 6.36C10.93 5.65 11.31 5.27 11.84 5.21C11.84 5.21 11.93 5.2 12 5.2C12.07 5.2 12.15 5.21 12.15 5.21C12.69 5.27 13.07 5.65 13.28 6.36C13.39 6.76 13.5 7.35 13.71 8.45C14.06 10.31 14.87 14.08 15.2 15.61C15.41 16.59 15.91 16.73 16.42 16.73C16.95 16.73 17.5 16.38 18.09 16C18.23 15.92 18.69 15.64 18.69 15.64C19.95 14.88 21.2 14.7 22.57 15.24C22.87 15.36 23.16 15.5 23.44 15.63A12 12 0 0 0 24 12C24 5.37 18.63 0 12 0M12 9.79C11.6 11.8 11 14.71 10.7 16C10.34 17.7 9.2 18.66 7.58 18.66C6.5 18.66 5.64 18.12 4.88 17.65C4.5 17.4 4.08 17.13 3.63 17A2.32 2.32 0 0 0 2.21 16.97A6.11 6.11 0 0 0 1.27 17.36A12 12 0 0 0 12 24A12 12 0 0 0 22.73 17.35A6.08 6.08 0 0 0 21.79 16.96A2.32 2.32 0 0 0 20.38 16.97C19.92 17.13 19.5 17.4 19.12 17.65C18.36 18.12 17.5 18.66 16.42 18.66C14.8 18.66 13.67 17.7 13.3 16C13 14.71 12 9.79 12 9.79Z"/>
</svg>
